!!!OTL: Eine arme Seel wollt wanderen gehn (Band 1), S. 53
!!!id: P0790
**kern
*clefG2
*k[f#]
*e:
{16B
16B
8e
8f#
=1
4.g
8a
8f#
16g
16g
=2
4e}
8r
=3
{8d
8g
8a
=4
4.b
8a
8b
8g
=5
4f#}
8r
=6
{8e
8g
16a
16a
=7
4.b
8b
8g
8b
=8
4.a}
=9
{8b
8g
8f#
=10
4e
8g
8f#
8e
8d#
=11
4e}
8r
==
*-
!!!minrhy: 16
!!!meters: 3/4 ]  ZZ[4
!!!cut: Eine arme Seel wollt wanderen gehn (Band 1), S. 53
!!!reg: Lothringen
!!!trd: PINCK, Louis: Verklingende Weisen, Bd 1, Metz 1928
!!!rhy1: XXX_X_  X__.X_X_XX  X__0_
!!!rhy2: X_X_X_  X__.X_X_X_  X__0_
!!!key: P0790  16  E 3/4 ]  ZZ[4
!!!mod: HEPTATONIK MOLL ?]  AMBITUS[8
!!!kad: 1241
!!!akz: 3b1_52_54_11_
!!!fot: 'a__b__c__d__
!!!for: 'a__b__bv_c__
!!!fok: '^a_^a_/__\__
!! PHRAS[AUFTAKTIG]
!!!fkt: geistliche, religiöse Lieder
!! LOTH VKL
!! PR[13] 2K[6] 2G[22] 3K[0] 3G[3] 4A[3] 4Ü[0] 5A[3] 6K[0] 6G[0]
!! 7K[0] 7G[0] 8A[0] MEHR[0] SI[38] ABS[32] SR[28] SP[9]
!! ST[8] 2k[13] 2g[31] 3k[0] 3g[3] 4d[0] 4ü[0] 5d[3] 6k[0] 6g[0]
!! 7k[0] 7g[0] 8d[0] mehr[0] si[50] dm[-12] sr[44] sp[6]
!! 1F[32] 2F[62] 3F[0] 4F[0] LF[0] 2P[5] 3P[0] 4P[0] TRI[0] DF[3] AB[37]
!! TF[0] U3K[0] U3[0] U4[0] U4Ü[0] U5[0] U6K[3] U6[0] U7K[3] U7[3]
!! N1[18] N2K[0] N2[12] N3K[24] N3[0] N4[18] N4Ü[0] N5[15] N6K[3] N6[0]
!!!n7k: 0] N7[0] O1[0] O2K[0] O2[0] O3K[0] O3[0] HÖ[0
